X: 1217
T: All the Blue Bonnetts are over the Border
B: australian traditional tunes wiki
M:6/8
L:1/8
R: Jig
Q: 3/8=100
K:Dmaj
V:1 
|:"D"DEDF2A|dfed2A|"G"BAGB2d|"A7"bag fed|"D"DEDF2A|dfed2A|"G"dcB "A7"AFA|"D"dAF"Em"E2D:|
|:"D"def afa|"G"bag fed|"D"def afd|def "Em"e2d|"D"DED F2A|dfe d2A|"G"dcB "A7"AFG|"D"dAFD3:|
% abcbook-tune_id 6342d53a76bccc8a091db6d3


% abcbook-boost 0
% abcbook-tablature 
% abcbook-transpose 
% abcbook-lastupdated 1665324354660
% abcbook-soundfonts 
% abcbook-repeats 1
% NFF Book 2015

